svg/blobs-icons/no-decorations/processor-chip.svg

<svg xmlns="http://www.w3.org/2000/svg" xmlns:xlink="http://www.w3.org/1999/xlink" preserveAspectRatio="xMidYMid" width="218" height="216" viewBox="0 0 218 216"><defs><style>.cls-3{fill:#2476ff}.cls-4{fill:#ededed}.cls-5{fill:#000;opacity:.35}.cls-6{fill:#142a3b}</style></defs><g id="group-145svg"><path d="M184.994 188.702s-153.237.0-153.237.0C29.11 188.702 26.969 186.573 26.969 183.939V31.582c0-2.632 2.141-4.761 4.788-4.761H184.994C187.641 26.821 189.783 28.95 189.783 31.582V183.939C189.783 186.573 187.641 188.702 184.994 188.702z" id="path-1" class="cls-3" fill-rule="evenodd"/><path d="M156.262 160.133s-95.773.0-95.773.0C57.843 160.133 55.701 158.004 55.701 155.373V60.15c0-2.632 2.142-4.761 4.788-4.761h95.773C158.909 55.389 161.05 57.518 161.05 60.15v95.223C161.05 158.004 158.909 160.133 156.262 160.133z" id="path-2" class="cls-4" fill-rule="evenodd"/><path d="M60.49 160.135s7.852.0 7.852.0.0-91.606.0-91.606c0-2.631 2.142-4.761 4.789-4.761H161.05s0-3.618.0-3.618C161.05 57.518 158.909 55.389 156.262 55.389H60.49c-2.647.0-4.789 2.129-4.789 4.761v95.223c0 2.631 2.142 4.762 4.789 4.762z" id="path-3" class="cls-5" fill-rule="evenodd"/><path d="M44.353 26.224s-7.185.0-7.185.0.0-26.23.0-26.23 7.185.0 7.185.0.0 26.23.0 26.23z" id="path-4" class="cls-6" fill-rule="evenodd"/><path d="M63.507 26.224s-7.184.0-7.184.0.0-26.23.0-26.23 7.184.0 7.184.0.0 26.23.0 26.23z" id="path-5" class="cls-6" fill-rule="evenodd"/><path d="M82.662 26.224s-7.185.0-7.185.0.0-26.23.0-26.23 7.185.0 7.185.0.0 26.23.0 26.23z" id="path-6" class="cls-6" fill-rule="evenodd"/><path d="M101.816 26.224s-7.184.0-7.184.0.0-26.23.0-26.23 7.184.0 7.184.0.0 26.23.0 26.23z" id="path-7" class="cls-6" fill-rule="evenodd"/><path d="M120.971 26.224s-7.185.0-7.185.0.0-26.23.0-26.23 7.185.0 7.185.0.0 26.23.0 26.23z" id="path-8" class="cls-6" fill-rule="evenodd"/><path d="M140.125 26.224s-7.185.0-7.185.0.0-26.23.0-26.23 7.185.0 7.185.0.0 26.23.0 26.23z" id="path-9" class="cls-6" fill-rule="evenodd"/><path d="M159.279 26.224s-7.184.0-7.184.0.0-26.23.0-26.23 7.184.0 7.184.0.0 26.23.0 26.23z" id="path-10" class="cls-6" fill-rule="evenodd"/><path d="M178.434 26.224s-7.185.0-7.185.0.0-26.23.0-26.23 7.185.0 7.185.0.0 26.23.0 26.23z" id="path-11" class="cls-6" fill-rule="evenodd"/><path d="M44.353 215.528s-7.185.0-7.185.0.0-26.23.0-26.23 7.185.0 7.185.0.0 26.23.0 26.23z" id="path-12" class="cls-6" fill-rule="evenodd"/><path d="M63.507 215.528s-7.184.0-7.184.0.0-26.23.0-26.23 7.184.0 7.184.0.0 26.23.0 26.23z" id="path-13" class="cls-6" fill-rule="evenodd"/><path d="M82.662 215.528s-7.185.0-7.185.0.0-26.23.0-26.23 7.185.0 7.185.0.0 26.23.0 26.23z" id="path-14" class="cls-6" fill-rule="evenodd"/><path d="M101.816 215.528s-7.184.0-7.184.0.0-26.23.0-26.23 7.184.0 7.184.0.0 26.23.0 26.23z" id="path-15" class="cls-6" fill-rule="evenodd"/><path d="M120.971 215.528s-7.185.0-7.185.0.0-26.23.0-26.23 7.185.0 7.185.0.0 26.23.0 26.23z" id="path-16" class="cls-6" fill-rule="evenodd"/><path d="M140.125 215.528s-7.185.0-7.185.0.0-26.23.0-26.23 7.185.0 7.185.0.0 26.23.0 26.23z" id="path-17" class="cls-6" fill-rule="evenodd"/><path d="M159.279 215.528s-7.184.0-7.184.0.0-26.23.0-26.23 7.184.0 7.184.0.0 26.23.0 26.23z" id="path-18" class="cls-6" fill-rule="evenodd"/><path d="M178.434 215.528s-7.185.0-7.185.0.0-26.23.0-26.23 7.185.0 7.185.0.0 26.23.0 26.23z" id="path-19" class="cls-6" fill-rule="evenodd"/><path d="M26.347 177.439s-26.339.0-26.339.0.0-7.184.0-7.184 26.339.0 26.339.0.0 7.184.0 7.184z" id="path-20" class="cls-6" fill-rule="evenodd"/><path d="M26.347 158.394s-26.339.0-26.339.0.0-7.185.0-7.185 26.339.0 26.339.0.0 7.185.0 7.185z" id="path-21" class="cls-6" fill-rule="evenodd"/><path d="M26.347 139.35s-26.339.0-26.339.0.0-7.185.0-7.185 26.339.0 26.339.0.0 7.185.0 7.185z" id="path-22" class="cls-6" fill-rule="evenodd"/><path d="M26.347 120.304s-26.339.0-26.339.0.0-7.184.0-7.184 26.339.0 26.339.0.0 7.184.0 7.184z" id="path-23" class="cls-6" fill-rule="evenodd"/><path d="M26.347 101.261s-26.339.0-26.339.0.0-7.184.0-7.184 26.339.0 26.339.0.0 7.184.0 7.184z" id="path-24" class="cls-6" fill-rule="evenodd"/><path d="M26.347 82.216s-26.339.0-26.339.0.0-7.184.0-7.184 26.339.0 26.339.0.0 7.184.0 7.184z" id="path-25" class="cls-6" fill-rule="evenodd"/><path d="M26.347 63.17s-26.339.0-26.339.0S.008 55.986.008 55.986s26.339.0 26.339.0S26.347 63.17 26.347 63.17z" id="path-26" class="cls-6" fill-rule="evenodd"/><path d="M26.347 44.125s-26.339.0-26.339.0.0-7.184.0-7.184 26.339.0 26.339.0.0 7.184.0 7.184z" id="path-27" class="cls-6" fill-rule="evenodd"/><path d="M216.742 177.439s-26.338.0-26.338.0.0-7.184.0-7.184 26.338.0 26.338.0.0 7.184.0 7.184z" id="path-28" class="cls-6" fill-rule="evenodd"/><path d="M216.742 158.394s-26.338.0-26.338.0.0-7.185.0-7.185 26.338.0 26.338.0.0 7.185.0 7.185z" id="path-29" class="cls-6" fill-rule="evenodd"/><path d="M216.742 139.35s-26.338.0-26.338.0.0-7.185.0-7.185 26.338.0 26.338.0.0 7.185.0 7.185z" id="path-30" class="cls-6" fill-rule="evenodd"/><path d="M216.742 120.304s-26.338.0-26.338.0.0-7.184.0-7.184 26.338.0 26.338.0.0 7.184.0 7.184z" id="path-31" class="cls-6" fill-rule="evenodd"/><path d="M216.742 101.261s-26.338.0-26.338.0.0-7.184.0-7.184 26.338.0 26.338.0.0 7.184.0 7.184z" id="path-32" class="cls-6" fill-rule="evenodd"/><path d="M216.742 82.216s-26.338.0-26.338.0.0-7.184.0-7.184 26.338.0 26.338.0.0 7.184.0 7.184z" id="path-33" class="cls-6" fill-rule="evenodd"/><path d="M216.742 63.17s-26.338.0-26.338.0S190.404 55.986 190.404 55.986s26.338.0 26.338.0S216.742 63.17 216.742 63.17z" id="path-34" class="cls-6" fill-rule="evenodd"/><path d="M216.742 44.125s-26.338.0-26.338.0.0-7.184.0-7.184 26.338.0 26.338.0.0 7.184.0 7.184z" id="path-35" class="cls-6" fill-rule="evenodd"/></g></svg>

<svg xmlns="http://www.w3.org/2000/svg" xmlns:xlink="http://www.w3.org/1999/xlink" preserveAspectRatio="xMidYMid" width="218" height="216" viewBox="0 0 218 216">
  <defs>
    <style>

      .cls-3 {
        fill: #2476ff;
      }

      .cls-4 {
        fill: #ededed;
      }

      .cls-5 {
        fill: #000000;
        opacity: 0.35;
      }

      .cls-6 {
        fill: #142a3b;
      }
    </style>
  </defs>
  <g id="group-145svg">
    <path d="M184.994,188.702 C184.994,188.702 31.757,188.702 31.757,188.702 C29.110,188.702 26.969,186.573 26.969,183.939 C26.969,183.939 26.969,31.582 26.969,31.582 C26.969,28.950 29.110,26.821 31.757,26.821 C31.757,26.821 184.994,26.821 184.994,26.821 C187.641,26.821 189.783,28.950 189.783,31.582 C189.783,31.582 189.783,183.939 189.783,183.939 C189.783,186.573 187.641,188.702 184.994,188.702 Z" id="path-1" class="cls-3" fill-rule="evenodd"/>
    <path d="M156.262,160.133 C156.262,160.133 60.489,160.133 60.489,160.133 C57.843,160.133 55.701,158.004 55.701,155.373 C55.701,155.373 55.701,60.150 55.701,60.150 C55.701,57.518 57.843,55.389 60.489,55.389 C60.489,55.389 156.262,55.389 156.262,55.389 C158.909,55.389 161.050,57.518 161.050,60.150 C161.050,60.150 161.050,155.373 161.050,155.373 C161.050,158.004 158.909,160.133 156.262,160.133 Z" id="path-2" class="cls-4" fill-rule="evenodd"/>
    <path d="M60.490,160.135 C60.490,160.135 68.342,160.135 68.342,160.135 C68.342,160.135 68.342,68.529 68.342,68.529 C68.342,65.898 70.484,63.768 73.131,63.768 C73.131,63.768 161.050,63.768 161.050,63.768 C161.050,63.768 161.050,60.150 161.050,60.150 C161.050,57.518 158.909,55.389 156.262,55.389 C156.262,55.389 60.490,55.389 60.490,55.389 C57.843,55.389 55.701,57.518 55.701,60.150 C55.701,60.150 55.701,155.373 55.701,155.373 C55.701,158.004 57.843,160.135 60.490,160.135 Z" id="path-3" class="cls-5" fill-rule="evenodd"/>
    <path d="M44.353,26.224 C44.353,26.224 37.168,26.224 37.168,26.224 C37.168,26.224 37.168,-0.006 37.168,-0.006 C37.168,-0.006 44.353,-0.006 44.353,-0.006 C44.353,-0.006 44.353,26.224 44.353,26.224 Z" id="path-4" class="cls-6" fill-rule="evenodd"/>
    <path d="M63.507,26.224 C63.507,26.224 56.323,26.224 56.323,26.224 C56.323,26.224 56.323,-0.006 56.323,-0.006 C56.323,-0.006 63.507,-0.006 63.507,-0.006 C63.507,-0.006 63.507,26.224 63.507,26.224 Z" id="path-5" class="cls-6" fill-rule="evenodd"/>
    <path d="M82.662,26.224 C82.662,26.224 75.477,26.224 75.477,26.224 C75.477,26.224 75.477,-0.006 75.477,-0.006 C75.477,-0.006 82.662,-0.006 82.662,-0.006 C82.662,-0.006 82.662,26.224 82.662,26.224 Z" id="path-6" class="cls-6" fill-rule="evenodd"/>
    <path d="M101.816,26.224 C101.816,26.224 94.632,26.224 94.632,26.224 C94.632,26.224 94.632,-0.006 94.632,-0.006 C94.632,-0.006 101.816,-0.006 101.816,-0.006 C101.816,-0.006 101.816,26.224 101.816,26.224 Z" id="path-7" class="cls-6" fill-rule="evenodd"/>
    <path d="M120.971,26.224 C120.971,26.224 113.786,26.224 113.786,26.224 C113.786,26.224 113.786,-0.006 113.786,-0.006 C113.786,-0.006 120.971,-0.006 120.971,-0.006 C120.971,-0.006 120.971,26.224 120.971,26.224 Z" id="path-8" class="cls-6" fill-rule="evenodd"/>
    <path d="M140.125,26.224 C140.125,26.224 132.940,26.224 132.940,26.224 C132.940,26.224 132.940,-0.006 132.940,-0.006 C132.940,-0.006 140.125,-0.006 140.125,-0.006 C140.125,-0.006 140.125,26.224 140.125,26.224 Z" id="path-9" class="cls-6" fill-rule="evenodd"/>
    <path d="M159.279,26.224 C159.279,26.224 152.095,26.224 152.095,26.224 C152.095,26.224 152.095,-0.006 152.095,-0.006 C152.095,-0.006 159.279,-0.006 159.279,-0.006 C159.279,-0.006 159.279,26.224 159.279,26.224 Z" id="path-10" class="cls-6" fill-rule="evenodd"/>
    <path d="M178.434,26.224 C178.434,26.224 171.249,26.224 171.249,26.224 C171.249,26.224 171.249,-0.006 171.249,-0.006 C171.249,-0.006 178.434,-0.006 178.434,-0.006 C178.434,-0.006 178.434,26.224 178.434,26.224 Z" id="path-11" class="cls-6" fill-rule="evenodd"/>
    <path d="M44.353,215.528 C44.353,215.528 37.168,215.528 37.168,215.528 C37.168,215.528 37.168,189.298 37.168,189.298 C37.168,189.298 44.353,189.298 44.353,189.298 C44.353,189.298 44.353,215.528 44.353,215.528 Z" id="path-12" class="cls-6" fill-rule="evenodd"/>
    <path d="M63.507,215.528 C63.507,215.528 56.323,215.528 56.323,215.528 C56.323,215.528 56.323,189.298 56.323,189.298 C56.323,189.298 63.507,189.298 63.507,189.298 C63.507,189.298 63.507,215.528 63.507,215.528 Z" id="path-13" class="cls-6" fill-rule="evenodd"/>
    <path d="M82.662,215.528 C82.662,215.528 75.477,215.528 75.477,215.528 C75.477,215.528 75.477,189.298 75.477,189.298 C75.477,189.298 82.662,189.298 82.662,189.298 C82.662,189.298 82.662,215.528 82.662,215.528 Z" id="path-14" class="cls-6" fill-rule="evenodd"/>
    <path d="M101.816,215.528 C101.816,215.528 94.632,215.528 94.632,215.528 C94.632,215.528 94.632,189.298 94.632,189.298 C94.632,189.298 101.816,189.298 101.816,189.298 C101.816,189.298 101.816,215.528 101.816,215.528 Z" id="path-15" class="cls-6" fill-rule="evenodd"/>
    <path d="M120.971,215.528 C120.971,215.528 113.786,215.528 113.786,215.528 C113.786,215.528 113.786,189.298 113.786,189.298 C113.786,189.298 120.971,189.298 120.971,189.298 C120.971,189.298 120.971,215.528 120.971,215.528 Z" id="path-16" class="cls-6" fill-rule="evenodd"/>
    <path d="M140.125,215.528 C140.125,215.528 132.940,215.528 132.940,215.528 C132.940,215.528 132.940,189.298 132.940,189.298 C132.940,189.298 140.125,189.298 140.125,189.298 C140.125,189.298 140.125,215.528 140.125,215.528 Z" id="path-17" class="cls-6" fill-rule="evenodd"/>
    <path d="M159.279,215.528 C159.279,215.528 152.095,215.528 152.095,215.528 C152.095,215.528 152.095,189.298 152.095,189.298 C152.095,189.298 159.279,189.298 159.279,189.298 C159.279,189.298 159.279,215.528 159.279,215.528 Z" id="path-18" class="cls-6" fill-rule="evenodd"/>
    <path d="M178.434,215.528 C178.434,215.528 171.249,215.528 171.249,215.528 C171.249,215.528 171.249,189.298 171.249,189.298 C171.249,189.298 178.434,189.298 178.434,189.298 C178.434,189.298 178.434,215.528 178.434,215.528 Z" id="path-19" class="cls-6" fill-rule="evenodd"/>
    <path d="M26.347,177.439 C26.347,177.439 0.008,177.439 0.008,177.439 C0.008,177.439 0.008,170.255 0.008,170.255 C0.008,170.255 26.347,170.255 26.347,170.255 C26.347,170.255 26.347,177.439 26.347,177.439 Z" id="path-20" class="cls-6" fill-rule="evenodd"/>
    <path d="M26.347,158.394 C26.347,158.394 0.008,158.394 0.008,158.394 C0.008,158.394 0.008,151.209 0.008,151.209 C0.008,151.209 26.347,151.209 26.347,151.209 C26.347,151.209 26.347,158.394 26.347,158.394 Z" id="path-21" class="cls-6" fill-rule="evenodd"/>
    <path d="M26.347,139.350 C26.347,139.350 0.008,139.350 0.008,139.350 C0.008,139.350 0.008,132.165 0.008,132.165 C0.008,132.165 26.347,132.165 26.347,132.165 C26.347,132.165 26.347,139.350 26.347,139.350 Z" id="path-22" class="cls-6" fill-rule="evenodd"/>
    <path d="M26.347,120.304 C26.347,120.304 0.008,120.304 0.008,120.304 C0.008,120.304 0.008,113.120 0.008,113.120 C0.008,113.120 26.347,113.120 26.347,113.120 C26.347,113.120 26.347,120.304 26.347,120.304 Z" id="path-23" class="cls-6" fill-rule="evenodd"/>
    <path d="M26.347,101.261 C26.347,101.261 0.008,101.261 0.008,101.261 C0.008,101.261 0.008,94.077 0.008,94.077 C0.008,94.077 26.347,94.077 26.347,94.077 C26.347,94.077 26.347,101.261 26.347,101.261 Z" id="path-24" class="cls-6" fill-rule="evenodd"/>
    <path d="M26.347,82.216 C26.347,82.216 0.008,82.216 0.008,82.216 C0.008,82.216 0.008,75.032 0.008,75.032 C0.008,75.032 26.347,75.032 26.347,75.032 C26.347,75.032 26.347,82.216 26.347,82.216 Z" id="path-25" class="cls-6" fill-rule="evenodd"/>
    <path d="M26.347,63.170 C26.347,63.170 0.008,63.170 0.008,63.170 C0.008,63.170 0.008,55.986 0.008,55.986 C0.008,55.986 26.347,55.986 26.347,55.986 C26.347,55.986 26.347,63.170 26.347,63.170 Z" id="path-26" class="cls-6" fill-rule="evenodd"/>
    <path d="M26.347,44.125 C26.347,44.125 0.008,44.125 0.008,44.125 C0.008,44.125 0.008,36.941 0.008,36.941 C0.008,36.941 26.347,36.941 26.347,36.941 C26.347,36.941 26.347,44.125 26.347,44.125 Z" id="path-27" class="cls-6" fill-rule="evenodd"/>
    <path d="M216.742,177.439 C216.742,177.439 190.404,177.439 190.404,177.439 C190.404,177.439 190.404,170.255 190.404,170.255 C190.404,170.255 216.742,170.255 216.742,170.255 C216.742,170.255 216.742,177.439 216.742,177.439 Z" id="path-28" class="cls-6" fill-rule="evenodd"/>
    <path d="M216.742,158.394 C216.742,158.394 190.404,158.394 190.404,158.394 C190.404,158.394 190.404,151.209 190.404,151.209 C190.404,151.209 216.742,151.209 216.742,151.209 C216.742,151.209 216.742,158.394 216.742,158.394 Z" id="path-29" class="cls-6" fill-rule="evenodd"/>
    <path d="M216.742,139.350 C216.742,139.350 190.404,139.350 190.404,139.350 C190.404,139.350 190.404,132.165 190.404,132.165 C190.404,132.165 216.742,132.165 216.742,132.165 C216.742,132.165 216.742,139.350 216.742,139.350 Z" id="path-30" class="cls-6" fill-rule="evenodd"/>
    <path d="M216.742,120.304 C216.742,120.304 190.404,120.304 190.404,120.304 C190.404,120.304 190.404,113.120 190.404,113.120 C190.404,113.120 216.742,113.120 216.742,113.120 C216.742,113.120 216.742,120.304 216.742,120.304 Z" id="path-31" class="cls-6" fill-rule="evenodd"/>
    <path d="M216.742,101.261 C216.742,101.261 190.404,101.261 190.404,101.261 C190.404,101.261 190.404,94.077 190.404,94.077 C190.404,94.077 216.742,94.077 216.742,94.077 C216.742,94.077 216.742,101.261 216.742,101.261 Z" id="path-32" class="cls-6" fill-rule="evenodd"/>
    <path d="M216.742,82.216 C216.742,82.216 190.404,82.216 190.404,82.216 C190.404,82.216 190.404,75.032 190.404,75.032 C190.404,75.032 216.742,75.032 216.742,75.032 C216.742,75.032 216.742,82.216 216.742,82.216 Z" id="path-33" class="cls-6" fill-rule="evenodd"/>
    <path d="M216.742,63.170 C216.742,63.170 190.404,63.170 190.404,63.170 C190.404,63.170 190.404,55.986 190.404,55.986 C190.404,55.986 216.742,55.986 216.742,55.986 C216.742,55.986 216.742,63.170 216.742,63.170 Z" id="path-34" class="cls-6" fill-rule="evenodd"/>
    <path d="M216.742,44.125 C216.742,44.125 190.404,44.125 190.404,44.125 C190.404,44.125 190.404,36.941 190.404,36.941 C190.404,36.941 216.742,36.941 216.742,36.941 C216.742,36.941 216.742,44.125 216.742,44.125 Z" id="path-35" class="cls-6" fill-rule="evenodd"/>
  </g>
</svg>
